tela-icon-theme/src/scalable/apps/eeschema.svg

<svg width="64" height="64" viewBox="0 0 64 64" fill="none" xmlns="http://www.w3.org/2000/svg">
<circle cx="32" cy="32" r="27" fill="#D0C5AC"/>
<path fill-rule="evenodd" clip-rule="evenodd" d="M22.4375 12.875H16.8125C15.8805 12.875 15.125 12.1195 15.125 11.1875C15.125 11.0904 15.1332 10.9953 15.1489 10.9027C15.7676 10.4079 16.4085 9.93976 17.0699 9.5H22.4375C23.3695 9.5 24.125 10.2555 24.125 11.1875C24.125 12.1195 23.3695 12.875 22.4375 12.875ZM29.75 17.375V35.375L32 34.8125V29.75H58.9076C58.8449 28.9907 58.7509 28.2402 58.6267 27.5H32V17.375H29.75ZM16.25 42.125V44.375H7.99658C7.61887 43.6438 7.27358 42.8932 6.96262 42.125H16.25ZM29.75 50H30.875L32 52.25V59C31.2423 59 30.4919 58.9688 29.75 58.9076V50ZM35.9375 38.75C35.0055 38.75 34.25 39.5055 34.25 40.4375C34.25 41.3695 35.0055 42.125 35.9375 42.125H42.6875C43.6195 42.125 44.375 41.3695 44.375 40.4375C44.375 39.5055 43.6195 38.75 42.6875 38.75H35.9375ZM35.9375 44.375C35.0055 44.375 34.25 45.1305 34.25 46.0625C34.25 46.9945 35.0055 47.75 35.9375 47.75H47.1875C48.1195 47.75 48.875 46.9945 48.875 46.0625C48.875 45.1305 48.1195 44.375 47.1875 44.375H35.9375Z" fill="#5A5A5A"/>
<path d="M15.125 43.375V43.125C15.125 42.5727 15.5727 42.125 16.125 42.125H20.75V35.75C20.75 34.9216 21.4216 34.25 22.25 34.25H22.625C23.4534 34.25 24.125 34.9216 24.125 35.75V37.625L30.0668 33.8438C30.2273 33.7417 30.4135 33.6875 30.6037 33.6875H31C31.5523 33.6875 32 34.1352 32 34.6875V34.829C32 35.1693 31.827 35.4862 31.5408 35.6702L24.125 40.4375V46.0625L30.875 50V52.25H29.75L24.125 48.875V50.75C24.125 51.5784 23.4534 52.25 22.625 52.25H22.25C21.4216 52.25 20.75 51.5784 20.75 50.75V44.375H16.125C15.5727 44.375 15.125 43.9273 15.125 43.375Z" fill="#333333"/>
<path d="M30.5625 25.8125H30.875H31.1875C32.5682 25.8125 33.6875 26.9318 33.6875 28.3125V28.9375C33.6875 30.3182 32.5682 31.4375 31.1875 31.4375H30.5625C29.1818 31.4375 28.0625 30.3182 28.0625 28.9375V28.3125C28.0625 26.9318 29.1818 25.8125 30.5625 25.8125Z" fill="#333333"/>
<path fill-rule="evenodd" clip-rule="evenodd" d="M27.5 17.375V6.125C27.5 5.80864 27.6306 5.52279 27.8408 5.31838C29.1965 5.10876 30.5856 5 32 5C32.4726 5 32.9423 5.01214 33.4089 5.03613C33.8928 5.16193 34.25 5.60175 34.25 6.125V17.375C34.25 17.9963 33.7463 18.5 33.125 18.5H28.625C28.0037 18.5 27.5 17.9963 27.5 17.375ZM39.75 25.25C39.1977 25.25 38.75 25.6977 38.75 26.25V31C38.75 31.5523 39.1977 32 39.75 32H51.25C51.8023 32 52.25 31.5523 52.25 31V26.25C52.25 25.6977 51.8023 25.25 51.25 25.25H39.75Z" fill="#DB295B"/>
<path d="M31.3679 52.7199L26.9505 53.0054C26.5483 53.0314 26.2822 52.5952 26.4893 52.2495L29.2939 47.568C29.5099 47.2075 30.0474 47.2582 30.1922 47.6528L31.805 52.0487C31.9201 52.3623 31.7012 52.6984 31.3679 52.7199Z" fill="#E10B4F" stroke="#E10B4F"/>
</svg>

<svg xmlns="http://www.w3.org/2000/svg" width="64" height="64" fill="none"><circle cx="32" cy="32" r="27" fill="#D0C5AC"/><path fill="#5A5A5A" fill-rule="evenodd" d="M22.438 12.875h-5.625a1.687 1.687 0 0 1-1.664-1.972c.619-.495 1.26-.963 1.92-1.403h5.369a1.687 1.687 0 1 1 0 3.375Zm7.312 4.5v18l2.25-.563V29.75h26.908c-.063-.76-.157-1.51-.281-2.25H32V17.375h-2.25Zm-13.5 24.75v2.25H7.997a26.871 26.871 0 0 1-1.034-2.25h9.287ZM29.75 50h1.125L32 52.25V59c-.758 0-1.508-.031-2.25-.092V50Zm6.188-11.25a1.687 1.687 0 1 0 0 3.375h6.75a1.687 1.687 0 1 0 0-3.375h-6.75Zm0 5.625a1.687 1.687 0 1 0 0 3.375h11.25a1.687 1.687 0 1 0 0-3.375h-11.25Z" clip-rule="evenodd"/><path fill="#333" d="M15.125 43.375v-.25a1 1 0 0 1 1-1h4.625V35.75a1.5 1.5 0 0 1 1.5-1.5h.375a1.5 1.5 0 0 1 1.5 1.5v1.875l5.942-3.781a1 1 0 0 1 .537-.157H31a1 1 0 0 1 1 1v.142a1 1 0 0 1-.46.841l-7.415 4.767v5.626L30.875 50v2.25H29.75l-5.625-3.375v1.875a1.5 1.5 0 0 1-1.5 1.5h-.375a1.5 1.5 0 0 1-1.5-1.5v-6.375h-4.625a1 1 0 0 1-1-1ZM30.563 25.813h.625a2.5 2.5 0 0 1 2.5 2.5v.625a2.5 2.5 0 0 1-2.5 2.5h-.625a2.5 2.5 0 0 1-2.5-2.5v-.625a2.5 2.5 0 0 1 2.5-2.5Z"/><path fill="#DB295B" fill-rule="evenodd" d="M27.5 17.375V6.125c0-.316.13-.602.34-.807a27.207 27.207 0 0 1 5.569-.282c.484.126.841.566.841 1.089v11.25c0 .621-.504 1.125-1.125 1.125h-4.5a1.125 1.125 0 0 1-1.125-1.125Zm12.25 7.875a1 1 0 0 0-1 1V31a1 1 0 0 0 1 1h11.5a1 1 0 0 0 1-1v-4.75a1 1 0 0 0-1-1h-11.5Z" clip-rule="evenodd"/><path fill="#E10B4F" stroke="#E10B4F" d="m31.368 52.72-4.417.285a.5.5 0 0 1-.462-.756l2.805-4.681a.5.5 0 0 1 .898.085l1.613 4.396a.5.5 0 0 1-.437.67Z"/></svg>
